X: 11052
T: KEN SWEENEY'S
C: Bob McQuillen 8 Feb 95
B: Bob's Note Book 11 #52
%R: reel
Z: 2020 John Chambers <jc:trillian.mit.edu>
M: C
L: 1/8
K: A
cB \
| A2ce fecA | EAce c2Ac | e2ce fece | dfec BdcB |
| A2ce fecA | EAce dfed | ceaf gefg | a2A2 A2 :|
|: cd \
| e2cA BAFA | EAcA BcAc | e2fe cefa | gefg e2ed |
| c2Ac efec | dAde f2AF | EAce afed | c2A2 A2  :|
%%begintext align
%% Ken is a good
%% friend and delights us all with his wonderful
%% harmonica playing when he shows up at a
%% contra dance. You are always welcome, Kenny!
%% (P.S. - He's no slouch with a concertina or banjo, either!)
%%endtext

%%sep 1 1 500

%%sep 1 1 500

